dist/img/logo2.svg

<svg width="38" height="48" viewBox="0 0 38 48" fill="none" xmlns="http://www.w3.org/2000/svg">
<path d="M28.8154 23.5L16.2079 46.4125H12.6076L3.05176e-05 23.5L12.6076 0.587524H16.2079L3.60028 23.5L14.4077 43.1402L25.2151 23.5L18.9113 12.0406L20.7115 8.76831L28.8154 23.5ZM23.415 0.587524H19.8082L7.20061 23.5L15.311 38.2317L17.1112 34.9594L10.8074 23.5L21.6083 3.85983L32.4158 23.5L19.8082 46.4125H23.415L36.016 23.5L23.415 0.587524Z" fill="white"/>
</svg>

<svg width="38" height="48" fill="none" xmlns="http://www.w3.org/2000/svg"><path d="M28.815 23.5L16.208 46.413h-3.6L0 23.5 12.608.588h3.6L3.6 23.5l10.808 19.64L25.215 23.5l-6.304-11.46 1.8-3.272L28.816 23.5zM23.415.588h-3.607L7.201 23.5l8.11 14.732 1.8-3.273L10.807 23.5 21.608 3.86 32.416 23.5 19.808 46.413h3.607L36.016 23.5 23.415.588z" fill="#fff"/></svg>
